X: 95
M: 3/4
L: 1/4
K: G
[| d B G | (A G) F | G3 | G A B | (c/d/ c) B | A3 |
   d B G | D3 | A B c | B> A G | A B c |


